Pods/ProtonCore-UIFoundations/libraries/UIFoundations/Sources/Assets.xcassets/Images/IconSet/ic-code.imageset/ic-code.svg

<svg width="24" height="24" viewBox="0 0 24 24" fill="none" xmlns="http://www.w3.org/2000/svg">
<path fill-rule="evenodd" clip-rule="evenodd" d="M14.2437 6.18209C14.3449 5.78024 14.0988 5.37304 13.694 5.27257C13.2893 5.17211 12.8792 5.41642 12.778 5.81827L9.7563 17.8181C9.65511 18.22 9.90118 18.6272 10.3059 18.7276C10.7107 18.8281 11.1208 18.5838 11.222 18.1819L14.2437 6.18209ZM7.31655 6.45054C7.56686 6.11917 7.49922 5.64907 7.16547 5.40054C6.83171 5.15202 6.35823 5.21917 6.10791 5.55054L1.71151 11.3705C1.4295 11.7439 1.4295 12.2572 1.71151 12.6305L6.10791 18.4505C6.35823 18.7819 6.83171 18.8491 7.16547 18.6005C7.49922 18.352 7.56686 17.8819 7.31655 17.5505L3.1241 12.0005L7.31655 6.45054ZM17.8921 5.55054C17.6418 5.21917 17.1683 5.15202 16.8345 5.40054C16.5008 5.64907 16.4331 6.11917 16.6835 6.45054L20.8759 12.0005L16.6835 17.5505C16.4331 17.8819 16.5008 18.352 16.8345 18.6005C17.1683 18.8491 17.6418 18.7819 17.8921 18.4505L22.2885 12.6305C22.5705 12.2572 22.5705 11.7439 22.2885 11.3705L17.8921 5.55054Z" fill="#0C0C14"/>
</svg>

<svg xmlns="http://www.w3.org/2000/svg" width="24" height="24" viewBox="0 0 24 24">
  <g class="ic-code">
    <path fill-rule="evenodd" d="M14.244 6.182a.756.756 0 0 0-1.466-.364l-3.022 12a.756.756 0 0 0 1.466.364l3.022-12Zm-6.927.269a.746.746 0 0 0-.152-1.05.759.759 0 0 0-1.057.15l-4.396 5.82a1.044 1.044 0 0 0 0 1.26l4.396 5.82a.759.759 0 0 0 1.057.15.746.746 0 0 0 .152-1.05L3.124 12l4.193-5.55Zm10.575-.9a.759.759 0 0 0-1.058-.15.746.746 0 0 0-.15 1.05L20.875 12l-4.193 5.55a.746.746 0 0 0 .151 1.05.759.759 0 0 0 1.058-.15l4.396-5.82a1.044 1.044 0 0 0 0-1.26l-4.396-5.82Z" class="Icon"/>
  </g>
</svg>
